alura/assets/api/cursos/gpt-python-criando-ferramentas-api.svg

<svg width="50" height="50" viewBox="0 0 50 50" fill="none" xmlns="http://www.w3.org/2000/svg">
<path d="M27.4 4.09998L22.4 4.79998L20.3 9.59998C20.1 9.59998 16.5 10.3 16.3 10.4L9.6 15.3C6.4 15.3 2.8 16.7 2.8 19.9L2 28.1L7.3 32.3L16 39.1C17.3 40.1 19 40.4 20.6 39.8L46.6 30.6C48.4 30 49.5 28.2 49.4 26.3C49.3 25.3 49.2 24 49.1 22.4C48.8 19 40.5 13.6 33.3 11.1C27.5 9.19998 29.1 4.39998 27.4 4.09998Z" fill="#FC9D9A"/>
<path d="M29.2001 17H20.2001C18.2001 17 16.3001 17.8 15.0001 19.1C13.6001 20.5 12.7001 22.5 12.9001 24.7C13.1001 28.6 16.6001 31.5 20.5001 31.5H29.5001C31.5001 31.5 33.4001 30.7 34.7001 29.4C36.1001 28 37.0001 26 36.8001 23.8C36.6001 19.9 33.1001 17 29.2001 17Z" stroke="#444444" stroke-miterlimit="10"/>
<path d="M10.8 19.3C12.7 15.4 16.6 12.7 21.3 12.7H28.6C33.2 12.7 37.2 15.4 39.1 19.3" stroke="#444444" stroke-miterlimit="10"/>
<path d="M22.0999 35.9H21.1999C16.4999 35.9 12.4999 33.2 10.6999 29.2M10.6999 29.1C7.6999 29.1 5.3999 27 5.3999 24.3C5.3999 21.6 7.8999 19.4 10.6999 19.4C10.6999 19.4 10.7999 19.4 10.7999 19.5L10.6999 29.1ZM39.0999 28.9V29.2C41.9999 29.2 44.3999 27 44.3999 24.3C44.3999 21.6 41.8999 19.4 39.0999 19.4C39.0999 19.4 38.9999 19.4 38.9999 19.5L39.0999 28.9Z" stroke="#444444" stroke-miterlimit="10" stroke-linecap="round" stroke-linejoin="round"/>
<path d="M25 10.4C25.9941 10.4 26.7999 9.59416 26.7999 8.60005C26.7999 7.60594 25.9941 6.80005 25 6.80005C24.0058 6.80005 23.2 7.60594 23.2 8.60005C23.2 9.59416 24.0058 10.4 25 10.4Z" stroke="#444444" stroke-width="0.5" stroke-miterlimit="10" stroke-linecap="round" stroke-linejoin="round"/>
<path d="M25.5 38.3C27.1569 38.3 28.5 37.2255 28.5 35.9C28.5 34.5745 27.1569 33.5 25.5 33.5C23.8431 33.5 22.5 34.5745 22.5 35.9C22.5 37.2255 23.8431 38.3 25.5 38.3Z" stroke="#444444" stroke-width="0.5" stroke-miterlimit="10" stroke-linecap="round" stroke-linejoin="round"/>
<path d="M24.8999 10.3V17" stroke="#444444" stroke-miterlimit="10"/>
<path d="M29.7 39.6C29 40.1 27.4 40.9 25.1 40.8H25C23.3 40.8 22.1 40.2 21.5 39.7C21.1 39.4 20.6 39.3 20.2 39.2C12.8 39 10.2 35.7 9.3 33.8C8.9 33 8.2 32.4 7.3 32.3C3.6 31.6 1.5 28.5 1.5 24.3C1.5 20 4.7 16.4 8.8 15.9C9.5 15.8 10.2 15.4 10.6 14.8C11.7 13.3 14.2 10.7 19 10.3C19.7 10.2 20.2 9.69998 20.3 8.99998C20.5 7.19998 21.3 4.09998 24.8 4.09998H25.4C28.9 4.09998 29.7 7.19998 29.9 8.99998C30 9.69998 30.5 10.2 31.2 10.3C35.9 10.7 38.5 13.3 39.6 14.8C40 15.4 40.7 15.7 41.4 15.9C45.5 16.5 48.7 20 48.7 24.3C48.7 28.4 46.7 31.5 43.1 32.2C43.1 32.2 38.8 32.2 36.7 34.1" stroke="#444444" stroke-width="2.5" stroke-miterlimit="10" stroke-linecap="round" stroke-linejoin="round"/>
<path d="M19.4 24.3C20.0627 24.3 20.6 23.7628 20.6 23.1C20.6 22.4373 20.0627 21.9 19.4 21.9C18.7372 21.9 18.2 22.4373 18.2 23.1C18.2 23.7628 18.7372 24.3 19.4 24.3Z" fill="#444444"/>
<path d="M30.4 24.3C31.0627 24.3 31.6 23.7628 31.6 23.1C31.6 22.4373 31.0627 21.9 30.4 21.9C29.7372 21.9 29.2 22.4373 29.2 23.1C29.2 23.7628 29.7372 24.3 30.4 24.3Z" fill="#444444"/>
<path d="M24.9001 28.3C23.5001 28.3 22.3001 27.5 22.0001 26.5C21.9001 26.2 22.2001 25.9 22.5001 25.9H27.0001C27.7001 25.9 28.0001 26.3 27.8001 26.6C27.4001 27.5 26.3001 28.3 24.9001 28.3Z" stroke="#444444" stroke-width="0.5" stroke-miterlimit="10"/>
<path d="M39.0999 19.3V28.9M10.7 29.1V19.3" stroke="#444444" stroke-miterlimit="10" stroke-linecap="round" stroke-linejoin="round"/>
</svg>

<svg xmlns="http://www.w3.org/2000/svg" fill="none" viewBox="0 0 50 50"><path fill="#FC9D9A" d="M27.4 4.1l-5 .7-2.1 4.8c-.2 0-3.8.7-4 .8l-6.7 4.9c-3.2 0-6.8 1.4-6.8 4.6L2 28.1l5.3 4.2 8.7 6.8c1.3 1 3 1.3 4.6.7l26-9.2c1.8-.6 2.9-2.4 2.8-4.3-.1-1-.2-2.3-.3-3.9-.3-3.4-8.6-8.8-15.8-11.3-5.8-1.9-4.2-6.7-5.9-7z"/><path stroke="#444" stroke-miterlimit="10" d="M29.2 17h-9c-2 0-3.9.8-5.2 2.1-1.4 1.4-2.3 3.4-2.1 5.6.2 3.9 3.7 6.8 7.6 6.8h9c2 0 3.9-.8 5.2-2.1 1.4-1.4 2.3-3.4 2.1-5.6-.2-3.9-3.7-6.8-7.6-6.8z"/><path stroke="#444" stroke-miterlimit="10" d="M10.8 19.3c1.9-3.9 5.8-6.6 10.5-6.6h7.3c4.6 0 8.6 2.7 10.5 6.6"/><path stroke="#444" stroke-linecap="round" stroke-linejoin="round" stroke-miterlimit="10" d="M22.1 35.9h-.9c-4.7 0-8.7-2.7-10.5-6.7m0-.1c-3 0-5.3-2.1-5.3-4.8 0-2.7 2.5-4.9 5.3-4.9 0 0 .1 0 .1.1l-.1 9.6zm28.4-.2v.3c2.9 0 5.3-2.2 5.3-4.9s-2.5-4.9-5.3-4.9c0 0-.1 0-.1.1l.1 9.4z"/><path stroke="#444" stroke-linecap="round" stroke-linejoin="round" stroke-miterlimit="10" stroke-width=".5" d="M25 10.4a1.8 1.8 0 100-3.6 1.8 1.8 0 000 3.6zm.5 27.9c1.657 0 3-1.075 3-2.4s-1.343-2.4-3-2.4-3 1.075-3 2.4 1.343 2.4 3 2.4z"/><path stroke="#444" stroke-miterlimit="10" d="M24.9 10.3V17"/><path stroke="#444" stroke-linecap="round" stroke-linejoin="round" stroke-miterlimit="10" stroke-width="2.5" d="M29.7 39.6c-.7.5-2.3 1.3-4.6 1.2H25c-1.7 0-2.9-.6-3.5-1.1-.4-.3-.9-.4-1.3-.5-7.4-.2-10-3.5-10.9-5.4-.4-.8-1.1-1.4-2-1.5-3.7-.7-5.8-3.8-5.8-8 0-4.3 3.2-7.9 7.3-8.4.7-.1 1.4-.5 1.8-1.1 1.1-1.5 3.6-4.1 8.4-4.5.7-.1 1.2-.6 1.3-1.3.2-1.8 1-4.9 4.5-4.9h.6c3.5 0 4.3 3.1 4.5 4.9.1.7.6 1.2 1.3 1.3 4.7.4 7.3 3 8.4 4.5.4.6 1.1.9 1.8 1.1 4.1.6 7.3 4.1 7.3 8.4 0 4.1-2 7.2-5.6 7.9 0 0-4.3 0-6.4 1.9"/><path fill="#444" d="M19.4 24.3a1.2 1.2 0 100-2.4 1.2 1.2 0 000 2.4zm11 0a1.2 1.2 0 100-2.4 1.2 1.2 0 000 2.4z"/><path stroke="#444" stroke-miterlimit="10" stroke-width=".5" d="M24.9 28.3c-1.4 0-2.6-.8-2.9-1.8-.1-.3.2-.6.5-.6H27c.7 0 1 .4.8.7-.4.9-1.5 1.7-2.9 1.7z"/><path stroke="#444" stroke-linecap="round" stroke-linejoin="round" stroke-miterlimit="10" d="M39.1 19.3v9.6m-28.4.2v-9.8"/></svg>
